packages/merlin-www-assets/imports/gq/icons/cta-menu.svg

<svg viewBox="0 0 32 32" xmlns="http://www.w3.org/2000/svg"><path d="m32 17h-32v-2h32zm0 5h-32v2h32zm0-14h-32v2h32z"/></svg>

<svg id="btn-menu" xmlns="http://www.w3.org/2000/svg" viewBox="0 0 32 32"><title>btn-menu</title><path d="M32,17H0V15H32v2Zm0,5H0v2H32V22ZM32,8H0v2H32V8Z"/></svg>
